X: 1
T: Mother's Day
M: 9/8
L: 1/8
R: slip jig
K: Edor
EGA B2A BGE| DFG ABG FED|EGA B2A BGE| DFG AGF E3:|
(3GGG G AGA Bcd |ABG FEF DEF|(3GGG G AGA Bcd| ABG FED E3:|
